X: 478
M:C
L:1/8
K:A
((3e/2f/2g/2) | a>e c>e a>e f/2e/2d/2c/2 | d>B c>A F>A E>A | a>e c>e a/2g/2f/2e/2 e/2d/2c/2B/2 | F>B E>B A2 A2 |
{efg}a>e c>e a>e f/2e/2d/2c/2 | d>B c>A F>A E>A | (3agf (3edc (3dcB (3AGF | (3EFA (3GAB A2 A !segno!|]


